payu/img/payu_later_klarna_logo.svg

<?xml version="1.0" encoding="UTF-8"?>
<svg xmlns="http://www.w3.org/2000/svg" xmlns:xlink="http://www.w3.org/1999/xlink" height="25px" viewBox="0 0 50 20" version="1.1">
<g id="surface1">
<path style=" stroke:none;fill-rule:nonzero;fill:rgb(100%,70.196078%,78.039216%);fill-opacity:1;" d="M 5.871094 0 L 44.128906 0 C 47.371094 0 50 2.628906 50 5.871094 L 50 14.355469 C 50 17.597656 47.371094 20.226562 44.128906 20.226562 L 5.871094 20.226562 C 2.628906 20.226562 0 17.597656 0 14.355469 L 0 5.871094 C 0 2.628906 2.628906 0 5.871094 0 Z M 5.871094 0 "/>
<path style=" stroke:none;fill-rule:nonzero;fill:rgb(0%,0%,0%);fill-opacity:1;" d="M 40.039062 8.863281 C 38.75 7.984375 37.003906 8.203125 35.972656 9.371094 C 34.9375 10.542969 34.9375 12.300781 35.972656 13.46875 C 37.003906 14.640625 38.75 14.859375 40.039062 13.980469 L 40.039062 14.355469 L 41.796875 14.355469 L 41.796875 8.488281 L 40.039062 8.488281 Z M 38.441406 12.929688 C 37.617188 12.886719 36.980469 12.191406 37.007812 11.367188 C 37.039062 10.542969 37.722656 9.894531 38.546875 9.910156 C 39.371094 9.925781 40.03125 10.597656 40.03125 11.421875 C 40.007812 12.277344 39.296875 12.953125 38.441406 12.929688 Z M 38.441406 12.929688 "/>
<path style=" stroke:none;fill-rule:nonzero;fill:rgb(0%,0%,0%);fill-opacity:1;" d="M 14.101562 5.871094 L 15.941406 5.871094 L 15.941406 14.355469 L 14.101562 14.355469 Z M 14.101562 5.871094 "/>
<path style=" stroke:none;fill-rule:nonzero;fill:rgb(0%,0%,0%);fill-opacity:1;" d="M 32.078125 8.328125 C 31.375 8.285156 30.699219 8.59375 30.265625 9.148438 L 30.265625 8.488281 L 28.515625 8.488281 L 28.515625 14.355469 L 30.289062 14.355469 L 30.289062 11.269531 C 30.261719 10.914062 30.390625 10.558594 30.644531 10.304688 C 30.898438 10.050781 31.25 9.917969 31.605469 9.941406 C 32.378906 9.941406 32.824219 10.402344 32.824219 11.257812 L 32.824219 14.355469 L 34.578125 14.355469 L 34.578125 10.625 C 34.578125 9.257812 33.492188 8.328125 32.078125 8.328125 Z M 32.078125 8.328125 "/>
<path style=" stroke:none;fill-rule:nonzero;fill:rgb(0%,0%,0%);fill-opacity:1;" d="M 21.5 8.863281 C 20.210938 7.984375 18.46875 8.203125 17.433594 9.371094 C 16.402344 10.542969 16.402344 12.300781 17.433594 13.46875 C 18.46875 14.640625 20.210938 14.859375 21.5 13.980469 L 21.5 14.355469 L 23.257812 14.355469 L 23.257812 8.488281 L 21.5 8.488281 Z M 19.902344 12.929688 C 19.078125 12.886719 18.441406 12.191406 18.46875 11.367188 C 18.5 10.542969 19.183594 9.894531 20.007812 9.910156 C 20.832031 9.921875 21.492188 10.597656 21.492188 11.421875 C 21.46875 12.277344 20.757812 12.953125 19.902344 12.929688 Z M 19.902344 12.929688 "/>
<path style=" stroke:none;fill-rule:nonzero;fill:rgb(0%,0%,0%);fill-opacity:1;" d="M 25.976562 9.25 L 25.976562 8.488281 L 24.175781 8.488281 L 24.175781 14.355469 L 25.980469 14.355469 L 25.980469 11.617188 C 25.980469 10.691406 26.980469 10.195312 27.675781 10.195312 C 27.683594 10.195312 27.691406 10.195312 27.699219 10.195312 L 27.699219 8.488281 C 27.039062 8.46875 26.40625 8.75 25.976562 9.25 Z M 25.976562 9.25 "/>
<path style=" stroke:none;fill-rule:nonzero;fill:rgb(0%,0%,0%);fill-opacity:1;" d="M 43.660156 12.273438 C 43.050781 12.273438 42.558594 12.769531 42.558594 13.375 C 42.558594 13.984375 43.050781 14.480469 43.660156 14.480469 C 44.269531 14.480469 44.765625 13.984375 44.765625 13.375 C 44.765625 12.765625 44.269531 12.273438 43.660156 12.273438 Z M 43.660156 12.273438 "/>
<path style=" stroke:none;fill-rule:nonzero;fill:rgb(0%,0%,0%);fill-opacity:1;" d="M 12.832031 5.871094 L 10.929688 5.871094 C 10.933594 7.417969 10.203125 8.878906 8.957031 9.804688 L 8.203125 10.367188 L 11.128906 14.359375 L 13.535156 14.359375 L 10.839844 10.6875 C 12.125 9.414062 12.839844 7.675781 12.832031 5.871094 Z M 12.832031 5.871094 "/>
<path style=" stroke:none;fill-rule:nonzero;fill:rgb(0%,0%,0%);fill-opacity:1;" d="M 6.058594 5.871094 L 7.96875 5.871094 L 7.96875 14.359375 L 6.058594 14.359375 Z M 6.058594 5.871094 "/>
</g>
</svg>

<svg version="1.1" viewBox="0 0 61.8 25" width="61.8" height="25" xmlns="http://www.w3.org/2000/svg">
 <g transform="scale(1.236)">
  <path d="m5.8711 0h38.258c3.2422 0 5.8711 2.6289 5.8711 5.8711v8.4844c0 3.2422-2.6289 5.8711-5.8711 5.8711h-38.258c-3.2422 0-5.8711-2.6289-5.8711-5.8711v-8.4844c0-3.2422 2.6289-5.8711 5.8711-5.8711z" fill="#ffb3c7"/>
  <g>
   <path d="m40.039 8.8633c-1.2891-0.87891-3.0352-0.66016-4.0664 0.50781-1.0352 1.1719-1.0352 2.9297 0 4.0977 1.0312 1.1719 2.7773 1.3906 4.0664 0.51172v0.375h1.7578v-5.8672h-1.7578zm-1.5977 4.0664c-0.82422-0.04297-1.4609-0.73828-1.4336-1.5625 0.03125-0.82422 0.71484-1.4727 1.5391-1.457s1.4844 0.6875 1.4844 1.5117c-0.02344 0.85547-0.73438 1.5312-1.5898 1.5078z"/>
   <path d="m14.102 5.8711h1.8398v8.4844h-1.8398z"/>
   <path d="m32.078 8.3281c-0.70312-0.042969-1.3789 0.26562-1.8125 0.82031v-0.66016h-1.75v5.8672h1.7734v-3.0859c-0.02734-0.35547 0.10156-0.71094 0.35547-0.96484 0.25391-0.25391 0.60547-0.38672 0.96094-0.36328 0.77344 0 1.2188 0.46094 1.2188 1.3164v3.0977h1.7539v-3.7305c0-1.3672-1.0859-2.2969-2.5-2.2969z"/>
   <path d="m21.5 8.8633c-1.2891-0.87891-3.0312-0.66016-4.0664 0.50781-1.0312 1.1719-1.0312 2.9297 0 4.0977 1.0352 1.1719 2.7773 1.3906 4.0664 0.51172v0.375h1.7578v-5.8672h-1.7578zm-1.5977 4.0664c-0.82422-0.04297-1.4609-0.73828-1.4336-1.5625 0.03125-0.82422 0.71484-1.4727 1.5391-1.457 0.82422 0.011719 1.4844 0.6875 1.4844 1.5117-0.02344 0.85547-0.73438 1.5312-1.5898 1.5078z"/>
   <path d="m25.977 9.25v-0.76172h-1.8008v5.8672h1.8047v-2.7383c0-0.92578 1-1.4219 1.6953-1.4219h0.02344v-1.707c-0.66016-0.019531-1.293 0.26172-1.7227 0.76172z"/>
   <path d="m43.66 12.273c-0.60938 0-1.1016 0.49609-1.1016 1.1016 0 0.60938 0.49219 1.1055 1.1016 1.1055s1.1055-0.49609 1.1055-1.1055-0.49609-1.1016-1.1055-1.1016z"/>
   <path d="m12.832 5.8711h-1.9023c0.0039 1.5469-0.72656 3.0078-1.9727 3.9336l-0.75391 0.5625 2.9258 3.9922h2.4062l-2.6953-3.6719c1.2852-1.2734 2-3.0117 1.9922-4.8164z"/>
   <path d="m6.0586 5.8711h1.9102v8.4883h-1.9102z"/>
  </g>
 </g>
</svg>
